static/images/protect-food-sources.svg

<svg height="41" viewBox="0 0 41 41" width="41" xmlns="http://www.w3.org/2000/svg"><g fill="none" fill-rule="evenodd" transform="translate(1 1)"><ellipse cx="19.5" cy="19.607843" rx="19.5" ry="19.607843" stroke="#009191"/><g fill="#009191"><path d="m15.2045998 12.2898204c-.6079619-.4699847-.9410861-1.0616689-.9410861-1.6841783 0-.62050779.3331242-1.21419363.9410861-1.68417825.6099857.46998462.9431099 1.06367046.9431099 1.68417825 0 .6225094-.3331242 1.2141936-.9431099 1.6841783m-.3428387 3.9160046c-.7698691.0848695-1.4264031-.0944773-1.8647671-.5376399-.4460546-.4319535-.6273907-1.0812849-.5415799-1.8443093.7714882-.0944774 1.4280223.0944773 1.8647672.5280321.4480784.441161.6371051 1.0908927.5415798 1.8539171m0 4.4032034c-.7698691.0944773-1.4264031-.094077-1.8647671-.53764-.4460546-.4315531-.6273907-1.0808845-.5415799-1.8439089.7714882-.0924757 1.4280223.094077 1.8647672.53764.4480784.4315531.6371051 1.0808845.5415798 1.8439089m0 4.4036037c-.7698691.0944774-1.4264031-.0944773-1.8647671-.5280321-.4460546-.441161-.6273907-1.0904924-.5415799-1.8519155.7714882-.0848695 1.4280223.0924757 1.8647672.5356383.4480784.4415614.6371051 1.0908928.5415798 1.8443093m1.227662-10.6607242c.438364-.4335548 1.094898-.6225095 1.8647671-.5280321.0951205.7630244-.0935014 1.4123558-.5419846 1.8443093-.438364.4431626-1.0928742.6225094-1.8647671.5376399-.0951206-.7630244.0955253-1.4127561.5419846-1.8539171m0 4.4132116c.438364-.443563 1.094898-.6301157 1.8647671-.53764.0951205.7630244-.0935014 1.4123558-.5419846 1.8439089-.438364.443563-1.0928742.6321173-1.8647671.53764-.0951206-.7630244.0955253-1.4123558.5419846-1.8439089m0 4.4032033c.438364-.4335548 1.094898-.6205078 1.8647671-.5356383.0951205.7614231-.0935014 1.4107545-.5419846 1.8519155-.438364.4335548-1.0928742.6225095-1.8647671.5280321-.0951206-.7534165.0955253-1.4027479.5419846-1.8443093m13.728928 5.4480585c-1.6640021-.7438087-3.6145801-1.2702395-5.6995411-1.5804934 0 0-.4978649-.0508416-.6638198-.0876718-2.5893023-.3258666-5.3482024-.3254663-7.9366951.0032027v-1.308671c.1440975.0192157.2671471.0288236.3995063.0288236.7816074 0 1.4575703-.254208 1.950578-.7438087.6294145-.6301157.8767279-1.562879.6759629-2.6245478-.0194289-.1329088-.1226448-.2273861-.2574326-.2546084-1.0734453-.1981622-2.0165552.046438-2.6536604.6765537-.0388577.0384314-.0756916.0848694-.1149542.1233009v-1.609317c.1440975.019616.2671471.0292239.3995063.0292239.7816074 0 1.4575703-.2546084 1.950578-.7438087.6294145-.6301157.8767279-1.562879.6759629-2.6265494-.0194289-.1313075-.1226448-.2353927-.2574326-.2526068-1.0734453-.1985625-2.0165552.0460377-2.6536604.6665455-.0388577.0484396-.0756916.0848695-.1149542.1329088v-1.6089167c.1440975.0096079.2671471.0192157.3995063.0192157.7816074 0 1.4575703-.254208 1.950578-.7438087.6294145-.6225094.8767279-1.562879.6759629-2.6265494-.0194289-.1216996-.1226448-.2253845-.2574326-.2526067-1.0734453-.1889547-2.0165552.046438-2.6536604.6765536-.0388577.0384315-.0756916.0848695-.1149542.1329088v-1.2045858c.8184414-.6032937 1.2665198-1.3835322 1.2665198-2.2314261 0-.89433187-.4950316-1.72100839-1.398879-2.33350963-.1052397-.07526159-.2574325-.07526159-.3626723 0-.9018235.61250124-1.3968551 1.43917776-1.3968551 2.33350963 0 .8478939.4460546 1.6281324 1.2547815 2.2314261v1.2045858c-.0271195-.0480393-.0659772-.0944773-.1032159-.1329088-.639129-.6301156-1.5802151-.8655083-2.6556842-.6765536-.132764.0272222-.2375989.1309071-.2570278.2526067-.1987412 1.0636704.0388577 2.00404.6759629 2.6265494.4950315.4896007 1.1709944.7438087 1.9501732.7438087.1323592 0 .267147-.0096078.3897918-.0192157v1.6089167c-.0271195-.0480393-.0659772-.0844692-.1032159-.1329088-.639129-.6205078-1.5802151-.865108-2.6556842-.6665455-.132764.0172141-.2375989.1212993-.2570278.2526068-.1987412 1.0636704.0388577 1.9964337.6759629 2.6265494.4950315.4892003 1.1709944.7438087 1.9501732.7438087.1323592 0 .267147-.0096079.3897918-.0292239v1.609317c-.0271195-.0384315-.0659772-.0848695-.1032159-.1233009-.639129-.6301157-1.5802151-.8747159-2.6556842-.6765537-.132764.0272223-.2375989.1216996-.2570278.2546084-.1987412 1.0616688.0388577 1.9944321.6759629 2.6245478.4950315.4896007 1.1709944.7438087 1.9501732.7438087.1323592 0 .267147-.0096079.3897918-.0288236v1.3931401c-2.0829372.3102539-4.0335152.8366847-5.69954114 1.5804934-.15178807.0652534-.2278845.254208-.15178807.4143391.06840582.1597307.25743258.2253844.41893509.1597307 5.54734832-2.4840328 14.56720302-2.4840328 20.10443212 0 .0469531.0192157.083787.0192157.1327639.0192157.1226448 0 .237599-.067255.2841473-.1789464.0760964-.1601311 0-.3490857-.1517881-.4143391"/><path d="m24.1539322 13.600975c-.1127935.0016238-.2095245-.0929593-.2113136-.2062154-.0003526-.0556132.0210639-.1116324.0596136-.1575031.0385496-.0450589.0878075-.0714447.1356376-.0722566.0456885-.0008119.0942325.0235443.133496.0669794.0410482.0454648.0649633.1035137.0653202.1591269v.0020297c0 .0511479-.0192748.1027017-.0538981.1428894-.0353372.0405936-.0824534.0641379-.1288557.0649497m-2.0402758 12.5836063.0835243-.0661676c.0471162-.0369402.0831673-.0649497.1174336-.0953949l.3380233-.297957c.3680063-.3239368.7485056-.6596458 1.1186536-.9969785.0128499-.0113662.0217734-.0182671.0271276-.0219205.006068.0040593.0160623.0113662.0306969.0247621.3415927.3097291.6863979.6145869 1.031203.9198507l.2509297.2224528c.0742437.0653557.1492014.1294936.224159.1932255l.103513.088494c.054612.0470886.1306404.0466827.1848955-.0012178l.0328386-.0292274c.048544-.043841.0692466-.1169095.0517564-.1847008l-.0071388-.0300392c-.0074957-.0345046-.0160623-.0690091-.0285553-.1010781l-.3076833-.7907631c-.1663345-.4266386-.3323122-.8532772-.497219-1.2811336-.1591958-.4124308-.1756151-.7120115-.0563967-1.0355424.4211906-1.1463629.7060296-2.3312897.8455936-3.5218997.0335525-.2890263.0599661-.576023.0881645-.8792571.005711-.0596725.0114221-.119751.0167762-.1810474l.9630273.5780527c.0456885.0276037.1003005.0263859.145632-.0020297l.0517565-.0332867c.0628216-.0397817.0920908-.1246223.0706743-.202562-.0207026-.0755041-.0396205-.15182-.0585384-.2285419-.0431898-.1757702-.0878075-.3572236-.1563402-.5305582-.224516-.5662805-.6039444-.9766817-.9730216-1.348113-.042476-.0426233-.0795979-.1128502-.084952-.1599388-.1781136-1.6083179-.6039445-2.9649556-1.3014075-4.1478527-.1020852-.1729287-.2138078-.3353031-.3323122-.507014-.0560398-.0811871-.1138643-.1648099-.1727596-.2533039-.0289122-.0434352-.0742437-.0686032-.1224308-.0682021-.0478301.0004108-.0928047.0263907-.12136.0706377-.0660341.1022958-.1302835.1985026-.1927482.2918679-.1313543.1968789-.2555699.3827975-.3669355.5804883-.7217351 1.2807277-1.1425687 2.7489977-1.250008 4.3638106-.011779.1765821-.054255.2902442-.151343.405124-.3223179.3815798-.5193494.7436746-.6200068 1.1386502-.0339095.1315232-.0478302.265888-.0631786.4075596-.0067819.0657616-.0142777.1343648-.0239151.2074332-.0010708.0085247-.0017847.0174553-.0017847.0259799 0 .057237.0249859.1112264.0674619.1437013.0489009.0373461.1124364.0393758.1631221.0048713l.6282164-.4262327c.006068.0795634.012136.1534437.0189179.22773.127428 1.3964194.4393946 2.7753836.9269762 4.0987345.1185045.3219072.0646064.601597-.0535411.9214745-.1784706.4830637-.3715758.9697808-.558613 1.4406664-.0878075.2212351-.175615.4424701-.2623517.664517-.0164193.0414055-.0239151.0799694-.0331955.1286817-.0049972.0239502-.0107083.0523657-.018561.088494-.0153485.069821.0089235.1441073.061037.1851068.0524703.0409995.1217169.0409995.1741872-.0004059"/></g></g></svg>

<?xml version="1.0" encoding="UTF-8"?>
<svg width="41px" height="41px" viewBox="0 0 41 41" version="1.1" xmlns="http://www.w3.org/2000/svg" xmlns:xlink="http://www.w3.org/1999/xlink">
    <!-- Generator: Sketch 61.2 (89653) - https://sketch.com -->
    <title>Group 4</title>
    <desc>Created with Sketch.</desc>
    <g id="Page-1" stroke="none" stroke-width="1" fill="none" fill-rule="evenodd">
        <g id="Homepage" transform="translate(-454.000000, -2460.000000)">
            <g id="Group-4" transform="translate(455.000000, 2461.000000)">
                <ellipse id="Oval" stroke="#009191" cx="19.5" cy="19.6078431" rx="19.5" ry="19.6078431"></ellipse>
                <path d="M15.2045998,12.2898204 C14.5966379,11.8198357 14.2635137,11.2281515 14.2635137,10.6056421 C14.2635137,9.98513431 14.5966379,9.39144847 15.2045998,8.92146385 C15.8145855,9.39144847 16.1477097,9.98513431 16.1477097,10.6056421 C16.1477097,11.2281515 15.8145855,11.8198357 15.2045998,12.2898204 M14.8617611,16.205825 C14.091892,16.2906945 13.435358,16.1113477 12.996994,15.6681851 C12.5509394,15.2362316 12.3696033,14.5869002 12.4554141,13.8238758 C13.2269023,13.7293984 13.8834364,13.9183531 14.3201813,14.3519079 C14.7682597,14.7930689 14.9572864,15.4428006 14.8617611,16.205825 M14.8617611,20.6090284 C14.091892,20.7035057 13.435358,20.5149514 12.996994,20.0713884 C12.5509394,19.6398353 12.3696033,18.9905039 12.4554141,18.2274795 C13.2269023,18.1350038 13.8834364,18.3215565 14.3201813,18.7651195 C14.7682597,19.1966726 14.9572864,19.846004 14.8617611,20.6090284 M14.8617611,25.0126321 C14.091892,25.1071095 13.435358,24.9181548 12.996994,24.4846 C12.5509394,24.043439 12.3696033,23.3941076 12.4554141,22.6326845 C13.2269023,22.547815 13.8834364,22.7251602 14.3201813,23.1683228 C14.7682597,23.6098842 14.9572864,24.2592156 14.8617611,25.0126321 M16.0894231,14.3519079 C16.5277871,13.9183531 17.1843211,13.7293984 17.9541902,13.8238758 C18.0493107,14.5869002 17.8606888,15.2362316 17.4122056,15.6681851 C16.9738416,16.1113477 16.3193314,16.2906945 15.5474385,16.205825 C15.4523179,15.4428006 15.6429638,14.7930689 16.0894231,14.3519079 M16.0894231,18.7651195 C16.5277871,18.3215565 17.1843211,18.1350038 17.9541902,18.2274795 C18.0493107,18.9905039 17.8606888,19.6398353 17.4122056,20.0713884 C16.9738416,20.5149514 16.3193314,20.7035057 15.5474385,20.6090284 C15.4523179,19.846004 15.6429638,19.1966726 16.0894231,18.7651195 M16.0894231,23.1683228 C16.5277871,22.734768 17.1843211,22.547815 17.9541902,22.6326845 C18.0493107,23.3941076 17.8606888,24.043439 17.4122056,24.4846 C16.9738416,24.9181548 16.3193314,25.1071095 15.5474385,25.0126321 C15.4523179,24.2592156 15.6429638,23.6098842 16.0894231,23.1683228 M29.8183511,28.6163813 C28.154349,27.8725726 26.203771,27.3461418 24.11881,27.0358879 C24.11881,27.0358879 23.6209451,26.9850463 23.4549902,26.9482161 C20.8656879,26.6223495 18.1067878,26.6227498 15.5182951,26.9514188 L15.5182951,25.6427478 C15.6623926,25.6619635 15.7854422,25.6715714 15.9178014,25.6715714 C16.6994088,25.6715714 17.3753717,25.4173634 17.8683794,24.9277627 C18.4977939,24.297647 18.7451073,23.3648837 18.5443423,22.3032149 C18.5249134,22.1703061 18.4216975,22.0758288 18.2869097,22.0486065 C17.2134644,21.8504443 16.2703545,22.0950445 15.6332493,22.7251602 C15.5943916,22.7635916 15.5575577,22.8100296 15.5182951,22.8484611 L15.5182951,21.2391441 C15.6623926,21.2587601 15.7854422,21.268368 15.9178014,21.268368 C16.6994088,21.268368 17.3753717,21.0137596 17.8683794,20.5245593 C18.4977939,19.8944436 18.7451073,18.9616803 18.5443423,17.8980099 C18.5249134,17.7667024 18.4216975,17.6626172 18.2869097,17.6454031 C17.2134644,17.4468406 16.2703545,17.6914408 15.6332493,18.3119486 C15.5943916,18.3603882 15.5575577,18.3968181 15.5182951,18.4448574 L15.5182951,16.8359407 C15.6623926,16.8455486 15.7854422,16.8551564 15.9178014,16.8551564 C16.6994088,16.8551564 17.3753717,16.6009484 17.8683794,16.1113477 C18.4977939,15.4888383 18.7451073,14.5484687 18.5443423,13.4847983 C18.5249134,13.3630987 18.4216975,13.2594138 18.2869097,13.2321916 C17.2134644,13.0432369 16.2703545,13.2786296 15.6332493,13.9087452 C15.5943916,13.9471767 15.5575577,13.9936147 15.5182951,14.041654 L15.5182951,12.8370682 C16.3367365,12.2337745 16.7848149,11.453536 16.7848149,10.6056421 C16.7848149,9.71131023 16.2897833,8.88463371 15.3859359,8.27213247 C15.2806962,8.19687088 15.1285034,8.19687088 15.0232636,8.27213247 C14.1214401,8.88463371 13.6264085,9.71131023 13.6264085,10.6056421 C13.6264085,11.453536 14.0724631,12.2337745 14.88119,12.8370682 L14.88119,14.041654 C14.8540705,13.9936147 14.8152128,13.9471767 14.7779741,13.9087452 C14.1388451,13.2786296 13.197759,13.0432369 12.1222899,13.2321916 C11.9895259,13.2594138 11.884691,13.3630987 11.8652621,13.4847983 C11.6665209,14.5484687 11.9041198,15.4888383 12.541225,16.1113477 C13.0362565,16.6009484 13.7122194,16.8551564 14.4913982,16.8551564 C14.6237574,16.8551564 14.7585452,16.8455486 14.88119,16.8359407 L14.88119,18.4448574 C14.8540705,18.3968181 14.8152128,18.3603882 14.7779741,18.3119486 C14.1388451,17.6914408 13.197759,17.4468406 12.1222899,17.6454031 C11.9895259,17.6626172 11.884691,17.7667024 11.8652621,17.8980099 C11.6665209,18.9616803 11.9041198,19.8944436 12.541225,20.5245593 C13.0362565,21.0137596 13.7122194,21.268368 14.4913982,21.268368 C14.6237574,21.268368 14.7585452,21.2587601 14.88119,21.2391441 L14.88119,22.8484611 C14.8540705,22.8100296 14.8152128,22.7635916 14.7779741,22.7251602 C14.1388451,22.0950445 13.197759,21.8504443 12.1222899,22.0486065 C11.9895259,22.0758288 11.884691,22.1703061 11.8652621,22.3032149 C11.6665209,23.3648837 11.9041198,24.297647 12.541225,24.9277627 C13.0362565,25.4173634 13.7122194,25.6715714 14.4913982,25.6715714 C14.6237574,25.6715714 14.7585452,25.6619635 14.88119,25.6427478 L14.88119,27.0358879 C12.7982528,27.3461418 10.8476748,27.8725726 9.18164886,28.6163813 C9.02986079,28.6816347 8.95376436,28.8705893 9.02986079,29.0307204 C9.09826661,29.1904511 9.28729337,29.2561048 9.44879588,29.1904511 C14.9961442,26.7064183 24.0159989,26.7064183 29.553228,29.1904511 C29.6001811,29.2096668 29.637015,29.2096668 29.6859919,29.2096668 C29.8086367,29.2096668 29.9235909,29.1424118 29.9701392,29.0307204 C30.0462356,28.8705893 29.9701392,28.6816347 29.8183511,28.6163813" id="Fill-3" fill="#009191"></path>
                <path d="M24.1539322,13.600975 C24.0411387,13.6025988 23.9444077,13.5080157 23.9426186,13.3947596 C23.942266,13.3391464 23.9636825,13.2831272 24.0022322,13.2372565 C24.0407818,13.1921976 24.0900397,13.1658118 24.1378698,13.1649999 C24.1835583,13.164188 24.2321023,13.1885442 24.2713658,13.2319793 C24.312414,13.2774441 24.3363291,13.335493 24.336686,13.3911062 L24.336686,13.3931359 C24.336686,13.4442838 24.3174112,13.4958376 24.2827879,13.5360253 C24.2474507,13.5766189 24.2003345,13.6001632 24.1539322,13.600975 M22.1136564,26.1845813 L22.1971807,26.1184137 C22.2442969,26.0814735 22.280348,26.053464 22.3146143,26.0230188 L22.6526376,25.7250618 C23.0206439,25.401125 23.4011432,25.065416 23.7712912,24.7280833 C23.7841411,24.7167171 23.7930646,24.7098162 23.7984188,24.7061628 C23.8044868,24.7102221 23.8144811,24.717529 23.8291157,24.7309249 C24.1707084,25.040654 24.5155136,25.3455118 24.8603187,25.6507756 L25.1112484,25.8732284 C25.1854921,25.9385841 25.2604498,26.002722 25.3354074,26.0664539 L25.4389204,26.1549479 C25.4935324,26.2020365 25.5695608,26.2016306 25.6238159,26.1537301 L25.6566545,26.1245027 C25.7051985,26.0806617 25.7259011,26.0075932 25.7084109,25.9398019 L25.7012721,25.9097627 C25.6937764,25.8752581 25.6852098,25.8407536 25.6727168,25.8086846 L25.3650335,25.0179215 C25.198699,24.5912829 25.0327213,24.1646443 24.8678145,23.7367879 C24.7086187,23.3243571 24.6921994,23.0247764 24.8114178,22.7012455 C25.2326084,21.5548826 25.5174474,20.3699558 25.6570114,19.1793458 C25.6905639,18.8903195 25.7169775,18.6033228 25.7451759,18.3000887 C25.7508869,18.2404162 25.756598,18.1803377 25.7619521,18.1190413 L26.7249794,18.697094 C26.7706679,18.7246977 26.8252799,18.7234799 26.8706114,18.6950643 L26.9223679,18.6617776 C26.9851895,18.6219959 27.0144587,18.5371553 26.9930422,18.4592156 C26.9723396,18.3837115 26.9534217,18.3073956 26.9345038,18.2306737 C26.891314,18.0549035 26.8466963,17.8734501 26.7781636,17.7001155 C26.5536476,17.133835 26.1742192,16.7234338 25.805142,16.3520025 C25.762666,16.3093792 25.7255441,16.2391523 25.72019,16.1920637 C25.5420764,14.5837458 25.1162455,13.2271081 24.4187825,12.044211 C24.3166973,11.8712823 24.2049747,11.7089079 24.0864703,11.537197 C24.0304305,11.4560099 23.972606,11.3723871 23.9137107,11.2838931 C23.8847985,11.2404579 23.839467,11.2152899 23.7912799,11.215691 C23.7434498,11.2161018 23.6984752,11.2420817 23.6699199,11.2863287 C23.6038858,11.3886245 23.5396364,11.4848313 23.4771717,11.5781966 C23.3458174,11.7750755 23.2216018,11.9609941 23.1102362,12.1586849 C22.3885011,13.4394126 21.9676675,14.9076826 21.8602282,16.5224955 C21.8484492,16.6990776 21.8059732,16.8127397 21.7088852,16.9276195 C21.3865673,17.3091993 21.1895358,17.6712941 21.0888784,18.0662697 C21.0549689,18.1977929 21.0410482,18.3321577 21.0256998,18.4738293 C21.0189179,18.5395909 21.0114221,18.6081941 21.0017847,18.6812625 C21.0007139,18.6897872 21,18.6987178 21,18.7072424 C21,18.7644794 21.0249859,18.8184688 21.0674619,18.8509437 C21.1163628,18.8882898 21.1798983,18.8903195 21.230584,18.855815 L21.8588004,18.4295823 C21.8648684,18.5091457 21.8709364,18.583026 21.8777183,18.6573123 C22.0051463,20.0537317 22.3171129,21.4326959 22.8046945,22.7560468 C22.923199,23.077954 22.8693009,23.3576438 22.7511534,23.6775213 C22.5726828,24.160585 22.3795776,24.6473021 22.1925404,25.1181877 C22.1047329,25.3394228 22.0169254,25.5606578 21.9301887,25.7827047 C21.9137694,25.8241102 21.9062736,25.8626741 21.8969932,25.9113864 C21.891996,25.9353366 21.8862849,25.9637521 21.8784322,25.9998804 C21.8630837,26.0697014 21.8873557,26.1439877 21.9394692,26.1849872 C21.9919395,26.2259867 22.0611861,26.2259867 22.1136564,26.1845813" id="Fill-5" fill="#009191"></path>
            </g>
        </g>
    </g>
</svg>
